X: 25799
T: Mason's Apron, The
R: reel
M: 4/4
K: Amajor
(3efg|aA A2 ABAF|EFAB cABc|dB ~B2 BABc|dcde fefg|
aA A2 ABAF|EFAB cABc|dcde fgaf|edcB A2:|
AB|c2 ec fcec|c2 ec fcec|d2 fd gdfd|d2 fd gdfd|
c2 ec fcec|acec fcec|dcde fgaf|edcB A2:|

